app/assets/images/icons/Logo.svg

<svg xmlns="http://www.w3.org/2000/svg" preserveAspectRatio="xMidYMid" width="130" height="39" viewBox="0 0 130 39"><defs><style>.cls-2 { fill: #ffffff; }</style></defs><path d="M125 15.005c-2.76 0-5-2.24-5-4.998 0-2.782 2.24-5 5-5 2.78 0 4.997 2.218 4.997 5 0 2.758-2.216 4.998-4.998 4.998zm0-9.313c-2.406 0-4.34 1.91-4.34 4.315 0 2.38 1.934 4.338 4.34 4.338 2.38 0 4.313-1.957 4.313-4.338 0-2.405-1.933-4.315-4.314-4.315zm-1.157 4.928v2.263h-.754v-5.73h2.333c.967 0 1.816.685 1.816 1.746 0 1.272-1.133 1.696-1.463 1.696l1.532 2.287h-.944l-1.485-2.263h-1.037zm2.618-1.72c0-.638-.542-1.086-1.037-1.086h-1.58v2.122h1.58c.495 0 1.038-.448 1.038-1.037zm-3.92 25.47c-.175.312-.316.624-.386.9-.105.277-.14.52-.14.727 0 .312.105.554.316.762.21.172.457.276.81.276.843 0 1.83-.45 2.92-1.28 1.09-.866 2.216-2.043 3.377-3.6l.563.103-1.337 5.967h-13.686l7.247-13.548c.352-.624.6-1.11.74-1.524.175-.415.245-.874.245-1.15 0-.312-.07-.554-.247-.727-.176-.21-.422-.278-.74-.278-.773 0-1.687.562-2.708 1.462-.985.865-2.005 2.11-3.025 3.67l-.563-.07 1.372-6.268h12.63l-7.39 14.575zm-16.843.312c.81 1.42 2.04 2 3.66 2 1.125 0 2.145-.408 3.025-1.515.88-1.108 1.513-2.63 1.9-4.57l.88.658c-.388 2.354-1.302 4.19-2.674 5.538-1.408 1.35-3.096 1.86-5.137 1.86-2.32 0-4.256-.787-5.77-2.62-1.547-1.87-2.32-4.19-2.32-7.027 0-2.7.773-4.915 2.356-6.715 1.584-1.764 3.554-2.504 5.946-2.504 2.287 0 4.152.567 5.524 1.95 1.372 1.35 2.075 3.367 2.075 5.686h-10.694v.934c0 2.873.422 4.907 1.23 6.326zm4.082-8.874c0-1.627-.213-2.93-.635-3.794-.387-.865-.985-1.043-1.76-1.043-.808 0-1.44.325-1.97 1.26-.492.9-.773 2.02-.843 3.578h5.207zm-20.89 8.874c.808 1.42 2.04 2.048 3.658 2.048 1.126 0 2.146-.456 3.025-1.563.88-1.108 1.513-2.63 1.9-4.57l.88.658c-.387 2.354-1.302 4.19-2.674 5.538-1.408 1.35-3.097 1.885-5.137 1.885-2.323 0-4.258-.812-5.77-2.646-1.548-1.87-2.322-4.188-2.322-7.026 0-2.7.775-4.915 2.358-6.715 1.583-1.764 3.553-2.483 5.946-2.483 2.286 0 4.15.546 5.523 1.93 1.372 1.35 2.076 3.347 2.076 5.666H87.658v.935c0 2.873.422 4.925 1.23 6.344zm4.08-8.87c0-1.628-.21-2.933-.633-3.798-.387-.865-.985-1.043-1.76-1.043-.808 0-1.442.304-1.97 1.24-.492.9-.774 2.044-.844 3.6h5.207zm-10.628-5.62l-.387 1.62h-2.288v7.92c0 3.046.283 5.09.635 6.127.316 1.003.95 1.71 1.83 1.986v.39c-1.338-.032-3.364.015-6.052-.02-.493-.276-.845-.765-1.02-1.353-.212-.554-.317-1.592-.317-3.08 0-.416 0-1.005.035-1.697.035-.727-.007-1.21-.007-1.488v-8.785H72.81l.176-.94c1.477-.763 2.744-1.663 3.8-2.632 1.02-1.003 1.9-2.11 2.603-3.425h.485c-.035.45-.134 1.003-.17 1.626 0 .66-.035 1.42-.035 2.355v1.396h2.675zm-.21 18.045H82.13zm-8.764.084c-.67-.034-1.337-.044-2.006-.044-.703-.034-1.372-.034-2.04-.034-.67 0-1.337 0-2.006.034-.668 0-1.337.035-2.005.07v-.38c.53-.278.88-.86 1.056-1.623.21-.726.267-2.18.267-4.29v-1.974-1.628c0-2.423-.126-4.154-.478-5.192-.35-1.038-.914-1.558-1.724-1.558-.843 0-1.51.59-2.004 1.766-.493 1.21-.69 2.872-.69 4.984v1.627c0 3.218.057 5.294.268 6.125.21.865.598 1.517 1.126 1.76v.38c-.634-.034-1.267-.07-1.9-.07-.633-.033-1.302-.033-2.006-.033-.668 0-1.372 0-2.11.034-.704 0-1.443.035-2.217.07v-.38c.67-.278 1.31-.93 1.557-1.726.282-.796.387-2.527.387-5.192v-.97-4.81c0-1.49-.104-2.423-.35-2.84-.212-.414-.784-.656-1.382-.69v-.382c1.16-.173 2.252-.346 3.342-.554 1.09-.207 2.26-.45 3.282-.692v2.493c.527-1.073 1.01-1.697 1.75-2.216.738-.484 1.618-.727 2.638-.727 1.9 0 3.307.693 4.187 2.042.88 1.385 1.21 3.53 1.21 6.438v1.94c0 3.114.14 5.12.386 6.056.246.97.83 1.596 1.465 1.804v.38zM45.16 34.88c.81 1.418 2.04 2.145 3.66 2.145 1.125 0 2.145-.554 3.025-1.662.88-1.107 1.513-2.63 1.9-4.57l.88.66c-.388 2.353-1.303 4.187-2.675 5.537-1.407 1.35-3.096 2.008-5.136 2.008-2.322 0-4.257-.935-5.77-2.77-1.548-1.87-2.322-4.188-2.322-7.026 0-2.7.774-4.915 2.357-6.715 1.582-1.765 3.553-2.63 5.945-2.63 2.287 0 4.15.692 5.523 2.077 1.373 1.35 2.076 3.165 2.076 5.484h-10.77v.988c0 2.873.497 5.054 1.306 6.473zm4.08-9.07c0-1.626-.21-2.734-.632-3.6-.387-.865-.985-1.315-1.76-1.315-.808 0-1.44.45-1.97 1.385-.492.9-.873 1.974-.943 3.53h5.306zM19.6 38.565c-2.27 0-4.45-.38-6.478-1.08 15.91.108 27.268-11.433 24.753-25.184.856 2.165 1.326 4.52 1.326 6.98 0 10.65-8.776 19.284-19.6 19.284zm-5.455-8.07V12.7h4.933c6.157.02 10.55 4.314 10.22 10.97 4.362-8.296-.456-16.773-9.218-16.735H7.067v27.17C2.75 30.568 0 25.24 0 19.28 0 8.635 8.778 0 19.6 0c6.037 0 11.435 2.685 15.03 6.908 1.022 14.472-5.093 24.186-20.485 23.585z" id="path-1" class="cls-2" fill-rule="evenodd"/></svg>

<svg xmlns="http://www.w3.org/2000/svg" xmlns:xlink="http://www.w3.org/1999/xlink" preserveAspectRatio="xMidYMid" width="130" height="39" viewBox="0 0 130 39">
  <defs>
    <style>

      .cls-2 {
        fill: #ffffff;
      }
    </style>
  </defs>
  <path d="M124.999,15.005 C122.240,15.005 120.000,12.765 120.000,10.007 C120.000,7.225 122.240,5.008 124.999,5.008 C127.781,5.008 129.997,7.225 129.997,10.007 C129.997,12.765 127.781,15.005 124.999,15.005 ZM124.999,5.692 C122.594,5.692 120.660,7.602 120.660,10.007 C120.660,12.388 122.594,14.345 124.999,14.345 C127.380,14.345 129.313,12.388 129.313,10.007 C129.313,7.602 127.380,5.692 124.999,5.692 ZM123.843,10.620 C123.843,10.620 123.843,12.883 123.843,12.883 C123.843,12.883 123.089,12.883 123.089,12.883 C123.089,12.883 123.089,7.154 123.089,7.154 C123.089,7.154 125.423,7.154 125.423,7.154 C126.390,7.154 127.239,7.838 127.239,8.899 C127.239,10.172 126.107,10.596 125.777,10.596 C125.777,10.596 127.309,12.883 127.309,12.883 C127.309,12.883 126.366,12.883 126.366,12.883 C126.366,12.883 124.881,10.620 124.881,10.620 C124.881,10.620 123.843,10.620 123.843,10.620 ZM126.461,8.899 C126.461,8.262 125.918,7.814 125.423,7.814 C125.423,7.814 123.843,7.814 123.843,7.814 C123.843,7.814 123.843,9.936 123.843,9.936 C123.843,9.936 125.423,9.936 125.423,9.936 C125.918,9.936 126.461,9.488 126.461,8.899 ZM122.541,34.371 C122.365,34.682 122.224,34.994 122.154,35.271 C122.049,35.547 122.013,35.790 122.013,35.997 C122.013,36.309 122.119,36.551 122.330,36.759 C122.541,36.932 122.787,37.036 123.139,37.036 C123.983,37.036 124.969,36.586 126.059,35.755 C127.150,34.890 128.276,33.713 129.437,32.155 C129.437,32.155 130.000,32.259 130.000,32.259 C130.000,32.259 128.663,38.227 128.663,38.227 C128.663,38.227 114.977,38.227 114.977,38.227 C114.977,38.227 122.224,24.679 122.224,24.679 C122.576,24.056 122.823,23.571 122.963,23.156 C123.139,22.741 123.209,22.282 123.209,22.006 C123.209,21.694 123.139,21.452 122.963,21.279 C122.787,21.071 122.541,21.002 122.224,21.002 C121.450,21.002 120.536,21.564 119.515,22.464 C118.530,23.329 117.510,24.575 116.490,26.133 C116.490,26.133 115.927,26.064 115.927,26.064 C115.927,26.064 117.299,19.796 117.299,19.796 C117.299,19.796 129.929,19.796 129.929,19.796 C129.929,19.796 122.541,34.371 122.541,34.371 ZM105.697,34.682 C106.507,36.101 107.738,36.681 109.356,36.681 C110.482,36.681 111.502,36.274 112.382,35.167 C113.262,34.059 113.895,32.536 114.282,30.598 C114.282,30.598 115.161,31.255 115.161,31.255 C114.774,33.609 113.860,35.444 112.488,36.793 C111.080,38.143 109.392,38.654 107.351,38.654 C105.029,38.654 103.094,37.866 101.581,36.032 C100.033,34.163 99.259,31.844 99.259,29.006 C99.259,26.306 100.033,24.091 101.616,22.291 C103.200,20.526 105.170,19.786 107.562,19.786 C109.849,19.786 111.714,20.353 113.086,21.737 C114.458,23.087 115.161,25.103 115.161,27.422 C115.161,27.422 104.466,27.422 104.466,27.422 C104.466,27.422 104.466,28.356 104.466,28.356 C104.466,31.229 104.888,33.263 105.697,34.682 ZM109.779,25.808 C109.779,24.181 109.567,22.879 109.145,22.014 C108.758,21.149 108.160,20.971 107.386,20.971 C106.577,20.971 105.944,21.295 105.416,22.230 C104.923,23.130 104.642,24.250 104.572,25.808 C104.572,25.808 109.779,25.808 109.779,25.808 ZM88.889,34.682 C89.698,36.101 90.930,36.730 92.548,36.730 C93.674,36.730 94.694,36.274 95.573,35.167 C96.453,34.059 97.086,32.536 97.473,30.598 C97.473,30.598 98.353,31.255 98.353,31.255 C97.966,33.609 97.051,35.444 95.679,36.793 C94.272,38.143 92.583,38.678 90.543,38.678 C88.220,38.678 86.285,37.866 84.773,36.032 C83.225,34.163 82.451,31.844 82.451,29.006 C82.451,26.306 83.225,24.091 84.808,22.291 C86.391,20.526 88.361,19.807 90.754,19.807 C93.040,19.807 94.905,20.353 96.277,21.737 C97.649,23.087 98.353,25.084 98.353,27.403 C98.353,27.403 87.658,27.403 87.658,27.403 C87.658,27.403 87.658,28.338 87.658,28.338 C87.658,31.211 88.080,33.263 88.889,34.682 ZM92.970,25.811 C92.970,24.184 92.759,22.879 92.337,22.014 C91.950,21.149 91.352,20.971 90.578,20.971 C89.769,20.971 89.135,21.274 88.607,22.209 C88.115,23.109 87.833,24.254 87.763,25.811 C87.763,25.811 92.970,25.811 92.970,25.811 ZM82.342,20.191 C82.342,20.191 81.955,21.813 81.955,21.813 C81.955,21.813 79.667,21.813 79.667,21.813 C79.667,21.813 79.667,29.733 79.667,29.733 C79.667,32.778 79.950,34.821 80.302,35.859 C80.618,36.863 81.252,37.569 82.131,37.846 C82.131,37.846 82.131,38.237 82.131,38.237 C80.794,38.204 78.768,38.251 76.080,38.217 C75.587,37.940 75.235,37.451 75.060,36.863 C74.848,36.309 74.743,35.271 74.743,33.782 C74.743,33.367 74.743,32.778 74.778,32.086 C74.813,31.359 74.771,30.875 74.771,30.598 C74.771,30.598 74.771,21.813 74.771,21.813 C74.771,21.813 72.808,21.813 72.808,21.813 C72.808,21.813 72.984,20.872 72.984,20.872 C74.461,20.110 75.728,19.210 76.783,18.241 C77.804,17.237 78.683,16.130 79.387,14.815 C79.387,14.815 79.872,14.815 79.872,14.815 C79.837,15.265 79.738,15.818 79.703,16.441 C79.703,17.099 79.667,17.860 79.667,18.795 C79.667,18.795 79.667,20.191 79.667,20.191 C79.667,20.191 82.342,20.191 82.342,20.191 ZM82.131,38.237 C82.131,38.237 82.131,38.237 82.131,38.237 C82.142,38.237 82.156,38.237 82.166,38.237 C82.166,38.237 82.131,38.237 82.131,38.237 ZM73.368,38.321 C72.699,38.286 72.031,38.276 71.362,38.276 C70.659,38.242 69.990,38.242 69.322,38.242 C68.653,38.242 67.985,38.242 67.316,38.276 C66.648,38.276 65.979,38.311 65.311,38.345 C65.311,38.345 65.311,37.965 65.311,37.965 C65.839,37.688 66.190,37.105 66.366,36.343 C66.577,35.617 66.633,34.163 66.633,32.052 C66.633,32.052 66.633,30.079 66.633,30.079 C66.633,30.079 66.633,28.452 66.633,28.452 C66.633,26.029 66.507,24.298 66.155,23.260 C65.804,22.222 65.241,21.702 64.431,21.702 C63.587,21.702 62.919,22.291 62.426,23.468 C61.933,24.679 61.737,26.340 61.737,28.452 C61.737,28.452 61.737,30.079 61.737,30.079 C61.737,33.298 61.793,35.374 62.004,36.205 C62.215,37.070 62.602,37.722 63.130,37.965 C63.130,37.965 63.130,38.345 63.130,38.345 C62.496,38.311 61.863,38.276 61.230,38.276 C60.597,38.242 59.928,38.242 59.224,38.242 C58.556,38.242 57.852,38.242 57.114,38.276 C56.410,38.276 55.671,38.311 54.897,38.345 C54.897,38.345 54.897,37.965 54.897,37.965 C55.566,37.688 56.208,37.036 56.454,36.240 C56.736,35.444 56.841,33.713 56.841,31.048 C56.841,31.048 56.841,30.079 56.841,30.079 C56.841,30.079 56.841,25.267 56.841,25.267 C56.841,23.779 56.736,22.845 56.489,22.429 C56.278,22.014 55.706,21.772 55.108,21.737 C55.108,21.737 55.108,21.356 55.108,21.356 C56.269,21.183 57.360,21.010 58.450,20.802 C59.541,20.595 60.711,20.353 61.732,20.110 C61.732,20.110 61.732,22.603 61.732,22.603 C62.259,21.530 62.743,20.906 63.481,20.387 C64.220,19.903 65.100,19.660 66.120,19.660 C68.020,19.660 69.427,20.353 70.307,21.702 C71.186,23.087 71.516,25.233 71.516,28.140 C71.516,28.140 71.516,30.079 71.516,30.079 C71.516,33.194 71.656,35.201 71.903,36.136 C72.149,37.105 72.734,37.732 73.368,37.940 C73.368,37.940 73.368,38.321 73.368,38.321 ZM45.160,34.879 C45.969,36.298 47.201,37.025 48.819,37.025 C49.945,37.025 50.965,36.471 51.845,35.363 C52.724,34.256 53.358,32.733 53.745,30.794 C53.745,30.794 54.624,31.452 54.624,31.452 C54.237,33.806 53.322,35.640 51.950,36.990 C50.543,38.340 48.854,38.998 46.814,38.998 C44.492,38.998 42.557,38.063 41.044,36.229 C39.496,34.359 38.722,32.040 38.722,29.202 C38.722,26.502 39.496,24.287 41.079,22.487 C42.662,20.722 44.633,19.857 47.025,19.857 C49.312,19.857 51.176,20.549 52.548,21.934 C53.921,23.283 54.624,25.099 54.624,27.418 C54.624,27.418 43.854,27.418 43.854,27.418 C43.854,27.418 43.854,28.406 43.854,28.406 C43.854,31.279 44.351,33.460 45.160,34.879 ZM49.241,25.811 C49.241,24.184 49.030,23.076 48.608,22.211 C48.221,21.345 47.623,20.895 46.849,20.895 C46.040,20.895 45.407,21.345 44.879,22.280 C44.386,23.180 44.005,24.254 43.935,25.811 C43.935,25.811 49.241,25.811 49.241,25.811 ZM19.600,38.564 C17.330,38.564 15.151,38.183 13.122,37.484 C29.033,37.592 40.390,26.051 37.875,12.300 C38.731,14.465 39.201,16.820 39.201,19.281 C39.201,29.929 30.424,38.564 19.600,38.564 ZM14.145,30.493 C14.145,24.562 14.145,18.632 14.145,12.701 C15.789,12.701 17.434,12.701 19.078,12.701 C25.235,12.719 29.629,17.014 29.299,23.671 C33.660,15.374 28.842,6.897 20.080,6.935 C15.743,6.935 11.405,6.935 7.067,6.935 C7.067,6.935 7.067,34.105 7.067,34.105 C2.749,30.568 0.000,25.240 0.000,19.281 C0.000,8.634 8.778,-0.001 19.600,-0.001 C25.637,-0.001 31.035,2.685 34.631,6.908 C35.652,21.380 29.537,31.094 14.145,30.493 Z" id="path-1" class="cls-2" fill-rule="evenodd"/>
</svg>
